static/img/contribute_faq.svg

<svg xmlns="http://www.w3.org/2000/svg" fill="none" viewBox="0 0 272 272" version="1.1">
  <rect width="136" height="136" fill="#C8D2DC"/>
  <rect x="136" y="136" width="136" height="136" fill="#C8D2DC"/>
  <rect x="136" width="136" height="136" fill="#00284B"/>
  <rect y="136" width="136" height="136" fill="#00284B"/>
  <path d="M39.34 192.76H53.05V196.06H43.12V201.88H52.48V205.06H43.12V214H39.34V192.76ZM61.5859 192.76H64.8559L74.0059 214H69.6859L67.7059 209.14H58.4959L56.5759 214H52.3459L61.5859 192.76ZM66.3859 205.9L63.1159 197.26L59.7859 205.9H66.3859ZM98.4702 214H85.6602C83.9602 214 82.4102 213.76 81.0102 213.28C79.6302 212.78 78.4402 212.07 77.4402 211.15C76.4602 210.21 75.7002 209.07 75.1602 207.73C74.6202 206.37 74.3502 204.83 74.3502 203.11C74.3502 201.49 74.6302 200.02 75.1902 198.7C75.7702 197.36 76.5702 196.21 77.5902 195.25C78.6102 194.29 79.8102 193.55 81.1902 193.03C82.5902 192.49 84.1002 192.22 85.7202 192.22C87.3402 192.22 88.8402 192.49 90.2202 193.03C91.6002 193.55 92.7902 194.29 93.7902 195.25C94.8102 196.21 95.6002 197.36 96.1602 198.7C96.7202 200.02 97.0002 201.49 97.0002 203.11C97.0002 204.07 96.8902 204.95 96.6702 205.75C96.4502 206.55 96.1602 207.28 95.8002 207.94C95.4602 208.58 95.0602 209.15 94.6002 209.65C94.1602 210.13 93.7002 210.54 93.2202 210.88V210.94H98.4702V214ZM85.7202 195.61C84.7002 195.61 83.7402 195.8 82.8402 196.18C81.9602 196.56 81.2002 197.08 80.5602 197.74C79.9202 198.4 79.4102 199.19 79.0302 200.11C78.6702 201.03 78.4902 202.03 78.4902 203.11C78.4902 204.25 78.6602 205.29 79.0002 206.23C79.3602 207.15 79.8502 207.94 80.4702 208.6C81.1102 209.26 81.8702 209.78 82.7502 210.16C83.6302 210.52 84.6002 210.7 85.6602 210.7C86.7002 210.7 87.6602 210.52 88.5402 210.16C89.4402 209.78 90.2102 209.26 90.8502 208.6C91.4902 207.94 91.9902 207.15 92.3502 206.23C92.7102 205.29 92.8902 204.25 92.8902 203.11C92.8902 202.03 92.7202 201.03 92.3802 200.11C92.0402 199.19 91.5502 198.4 90.9102 197.74C90.2902 197.08 89.5402 196.56 88.6602 196.18C87.7802 195.8 86.8002 195.61 85.7202 195.61Z" fill="#C8D2DC"/>
  <path d="M175.34 56.76H189.05V60.06H179.12V65.88H188.48V69.06H179.12V78H175.34V56.76ZM197.586 56.76H200.856L210.006 78H205.686L203.706 73.14H194.496L192.576 78H188.346L197.586 56.76ZM202.386 69.9L199.116 61.26L195.786 69.9H202.386ZM234.47 78H221.66C219.96 78 218.41 77.76 217.01 77.28C215.63 76.78 214.44 76.07 213.44 75.15C212.46 74.21 211.7 73.07 211.16 71.73C210.62 70.37 210.35 68.83 210.35 67.11C210.35 65.49 210.63 64.02 211.19 62.7C211.77 61.36 212.57 60.21 213.59 59.25C214.61 58.29 215.81 57.55 217.19 57.03C218.59 56.49 220.1 56.22 221.72 56.22C223.34 56.22 224.84 56.49 226.22 57.03C227.6 57.55 228.79 58.29 229.79 59.25C230.81 60.21 231.6 61.36 232.16 62.7C232.72 64.02 233 65.49 233 67.11C233 68.07 232.89 68.95 232.67 69.75C232.45 70.55 232.16 71.28 231.8 71.94C231.46 72.58 231.06 73.15 230.6 73.65C230.16 74.13 229.7 74.54 229.22 74.88V74.94H234.47V78ZM221.72 59.61C220.7 59.61 219.74 59.8 218.84 60.18C217.96 60.56 217.2 61.08 216.56 61.74C215.92 62.4 215.41 63.19 215.03 64.11C214.67 65.03 214.49 66.03 214.49 67.11C214.49 68.25 214.66 69.29 215 70.23C215.36 71.15 215.85 71.94 216.47 72.6C217.11 73.26 217.87 73.78 218.75 74.16C219.63 74.52 220.6 74.7 221.66 74.7C222.7 74.7 223.66 74.52 224.54 74.16C225.44 73.78 226.21 73.26 226.85 72.6C227.49 71.94 227.99 71.15 228.35 70.23C228.71 69.29 228.89 68.25 228.89 67.11C228.89 66.03 228.72 65.03 228.38 64.11C228.04 63.19 227.55 62.4 226.91 61.74C226.29 61.08 225.54 60.56 224.66 60.18C223.78 59.8 222.8 59.61 221.72 59.61Z" fill="#C8D2DC"/>
  <circle cx="68.5" cy="56.5" r="26.5" fill="#F0F5F7"/>
  <path d="M68.3798 41.8798L71.1481 53.6114L82.8798 56.3798L71.1481 59.1481L68.3798 70.8798L65.6114 59.1481L53.8798 56.3798L65.6114 53.6114L68.3798 41.8798Z" fill="#00284B"/>
  <path d="M77.0696 47.6899L72.681 56.3797L77.0696 65.0696L68.3798 60.681L59.6899 65.0696L64.0785 56.3797L59.6899 47.6899L68.3798 52.0785L77.0696 47.6899Z" fill="#00284B"/>
  <rect x="47" y="92" width="42" height="3" fill="#788CA0"/>
  <rect x="42" y="97" width="52" height="3" fill="#788CA0"/>
  <rect x="42" y="100" width="52" height="2" fill="#00284B"/>
  <rect x="37" y="102" width="62" height="5" fill="#00284B"/>
  <rect x="47" y="95" width="42" height="2" fill="#00284B"/>
  <circle cx="204.5" cy="192.5" r="26.5" fill="#F0F5F7"/>
  <path d="M204.38 177.88L207.148 189.611L218.88 192.38L207.148 195.148L204.38 206.88L201.611 195.148L189.88 192.38L201.611 189.611L204.38 177.88Z" fill="#00284B"/>
  <path d="M213.07 183.69L208.681 192.38L213.07 201.07L204.38 196.681L195.69 201.07L200.078 192.38L195.69 183.69L204.38 188.078L213.07 183.69Z" fill="#00284B"/>
  <rect x="183" y="228" width="42" height="3" fill="#788CA0"/>
  <rect x="178" y="233" width="52" height="3" fill="#788CA0"/>
  <rect x="178" y="236" width="52" height="2" fill="#00284B"/>
  <rect x="173" y="238" width="62" height="5" fill="#00284B"/>
  <rect x="183" y="231" width="42" height="2" fill="#00284B"/>
</svg>

<svg xmlns="http://www.w3.org/2000/svg" viewBox="0 0 272 272" version="1.1">
  <rect width="136" height="136" fill="#C8D2DC"/>
  <rect x="136" y="136" width="136" height="136" fill="#C8D2DC"/>
  <rect x="136" width="136" height="136" fill="#00284B"/>
  <rect y="136" width="136" height="136" fill="#00284B"/>
  <path d="m39.34 192.76h13.71v3.3h-9.93v5.82h9.36v3.18h-9.36v8.94h-3.78v-21.24zm22.246 0h3.27l9.15 21.24h-4.32l-1.98-4.86h-9.21l-1.92 4.86h-4.23l9.24-21.24zm4.8 13.14-3.27-8.64-3.33 8.64h6.6zm32.084 8.1h-12.81c-1.7 0-3.25-0.24-4.65-0.72-1.38-0.5-2.57-1.21-3.57-2.13-0.98-0.94-1.74-2.08-2.28-3.42-0.54-1.36-0.81-2.9-0.81-4.62 0-1.62 0.28-3.09 0.84-4.41 0.58-1.34 1.38-2.49 2.4-3.45s2.22-1.7 3.6-2.22c1.4-0.54 2.91-0.81 4.53-0.81s3.12 0.27 4.5 0.81c1.38 0.52 2.57 1.26 3.57 2.22 1.02 0.96 1.81 2.11 2.37 3.45 0.56 1.32 0.84 2.79 0.84 4.41 0 0.96-0.11 1.84-0.33 2.64s-0.51 1.53-0.87 2.19c-0.34 0.64-0.74 1.21-1.2 1.71-0.44 0.48-0.9 0.89-1.38 1.23v0.06h5.25v3.06zm-12.75-18.39c-1.02 0-1.98 0.19-2.88 0.57-0.88 0.38-1.64 0.9-2.28 1.56s-1.15 1.45-1.53 2.37c-0.36 0.92-0.54 1.92-0.54 3 0 1.14 0.17 2.18 0.51 3.12 0.36 0.92 0.85 1.71 1.47 2.37 0.64 0.66 1.4 1.18 2.28 1.56 0.88 0.36 1.85 0.54 2.91 0.54 1.04 0 2-0.18 2.88-0.54 0.9-0.38 1.67-0.9 2.31-1.56s1.14-1.45 1.5-2.37c0.36-0.94 0.54-1.98 0.54-3.12 0-1.08-0.17-2.08-0.51-3s-0.83-1.71-1.47-2.37c-0.62-0.66-1.37-1.18-2.25-1.56s-1.86-0.57-2.94-0.57z" fill="#C8D2DC"/>
  <path d="m175.34 56.76h13.71v3.3h-9.93v5.82h9.36v3.18h-9.36v8.94h-3.78v-21.24zm22.246 0h3.27l9.15 21.24h-4.32l-1.98-4.86h-9.21l-1.92 4.86h-4.23l9.24-21.24zm4.8 13.14-3.27-8.64-3.33 8.64h6.6zm32.084 8.1h-12.81c-1.7 0-3.25-0.24-4.65-0.72-1.38-0.5-2.57-1.21-3.57-2.13-0.98-0.94-1.74-2.08-2.28-3.42-0.54-1.36-0.81-2.9-0.81-4.62 0-1.62 0.28-3.09 0.84-4.41 0.58-1.34 1.38-2.49 2.4-3.45s2.22-1.7 3.6-2.22c1.4-0.54 2.91-0.81 4.53-0.81s3.12 0.27 4.5 0.81c1.38 0.52 2.57 1.26 3.57 2.22 1.02 0.96 1.81 2.11 2.37 3.45 0.56 1.32 0.84 2.79 0.84 4.41 0 0.96-0.11 1.84-0.33 2.64s-0.51 1.53-0.87 2.19c-0.34 0.64-0.74 1.21-1.2 1.71-0.44 0.48-0.9 0.89-1.38 1.23v0.06h5.25v3.06zm-12.75-18.39c-1.02 0-1.98 0.19-2.88 0.57-0.88 0.38-1.64 0.9-2.28 1.56s-1.15 1.45-1.53 2.37c-0.36 0.92-0.54 1.92-0.54 3 0 1.14 0.17 2.18 0.51 3.12 0.36 0.92 0.85 1.71 1.47 2.37 0.64 0.66 1.4 1.18 2.28 1.56 0.88 0.36 1.85 0.54 2.91 0.54 1.04 0 2-0.18 2.88-0.54 0.9-0.38 1.67-0.9 2.31-1.56s1.14-1.45 1.5-2.37c0.36-0.94 0.54-1.98 0.54-3.12 0-1.08-0.17-2.08-0.51-3s-0.83-1.71-1.47-2.37c-0.62-0.66-1.37-1.18-2.25-1.56s-1.86-0.57-2.94-0.57z" fill="#C8D2DC"/>
  <circle cx="68.5" cy="56.5" r="26.5" fill="#F0F5F7"/>
  <path d="m68.38 41.88 2.7683 11.732 11.732 2.7684-11.732 2.7683-2.7683 11.732-2.7684-11.732-11.732-2.7683 11.732-2.7684 2.7684-11.732z" fill="#00284B"/>
  <path d="m77.07 47.69-4.3886 8.6898 4.3886 8.6899-8.6898-4.3886-8.6899 4.3886 4.3886-8.6899-4.3886-8.6898 8.6899 4.3886 8.6898-4.3886z" fill="#00284B"/>
  <rect x="47" y="92" width="42" height="3" fill="#788CA0"/>
  <rect x="42" y="97" width="52" height="3" fill="#788CA0"/>
  <rect x="42" y="100" width="52" height="2" fill="#00284B"/>
  <rect x="37" y="102" width="62" height="5" fill="#00284B"/>
  <rect x="47" y="95" width="42" height="2" fill="#00284B"/>
  <circle cx="204.5" cy="192.5" r="26.5" fill="#F0F5F7"/>
  <path d="m204.38 177.88 2.768 11.731 11.732 2.769-11.732 2.768-2.768 11.732-2.769-11.732-11.731-2.768 11.731-2.769 2.769-11.731z" fill="#00284B"/>
  <path d="m213.07 183.69-4.389 8.69 4.389 8.69-8.69-4.389-8.69 4.389 4.388-8.69-4.388-8.69 8.69 4.388 8.69-4.388z" fill="#00284B"/>
  <rect x="183" y="228" width="42" height="3" fill="#788CA0"/>
  <rect x="178" y="233" width="52" height="3" fill="#788CA0"/>
  <rect x="178" y="236" width="52" height="2" fill="#00284B"/>
  <rect x="173" y="238" width="62" height="5" fill="#00284B"/>
  <rect x="183" y="231" width="42" height="2" fill="#00284B"/>
</svg>
